X: 13888
T: Fox On The Prowl, The
R: reel
M: 4/4
K: Dmajor
|:D||GABG A~D3|E~D3 G~D3|G2GA BGBd|e2dB BAA2|
GABG A~D3|E~D3 G~D3|G2GB dedB|AGAB G3:|
|:D||GABG D2DE|GABG A~D3|E~D3 GABd|e2dB BAAd|
e~B3 dBAB|GABG A~D3|E~D3 GABG|AGAB G3:|

